web/ui/src/assets/svgs/logo/gitlink.svg

<svg height="35" viewBox="0 0 56 35" width="56" xmlns="http://www.w3.org/2000/svg" xmlns:xlink="http://www.w3.org/1999/xlink"><linearGradient id="a" x1="0%" x2="100.000223%" y1="49.999918%" y2="49.999918%"><stop offset="0" stop-color="#6dffff"/><stop offset="1" stop-color="#0080ff"/></linearGradient><mask id="b" fill="#fff"><path d="m23.7890943 0v35h5.9769551v-3.4733783h-2.0737476v-31.5266217zm7.9352147 4.7160185v24.7013873l2.8103885 1.6457686v-27.99310137zm-16.6831629 2.53852374 1.5475756.55932075v23.21552571l2.822441-1.4343871v-20.58024406l1.5121376.53526394v-3.13216082l-5.8821542-3.34778763zm26.2120043.95024385.006476 2.58239201-1.5031432-2.01475751-1.3183984.65271776v16.17307255l1.0929989.5619741-.0053967-1.7948854 1.7269238 2.7444217 1.4011468.2142117v-19.64857354zm-30.9772345 19.11914691 3.1226739-1.5352134v-16.57832362l-3.1226739-1.53503652zm41.2702398-16.4286761-2.4867702 3.2513835v-2.1559144l-2.74383.6401587v11.6341192l2.74383.5614434v-2.2291461l2.6497486 3.3309832 4.2908659.2101433-5.726731-7.9063755 5.0026822-7.7369166zm-51.5461557 15.2415788 6.78896902-3.3826346v-6.3688626l-3.22395079-.3366184v2.2367523l1.2924945.0030071v2.1596291l-2.23564671 1.0004801v-6.863796l4.167103.7406312v-2.6207768l-6.78896902-2.2095115z" fill="#fff" fill-rule="evenodd"/></mask><path d="m23.7890943 0v35h5.9769551v-3.4733783h-2.0737476v-31.5266217zm7.9352147 4.7160185v24.7013873l2.8103885 1.6457686v-27.99310137zm-16.6831629 2.53852374 1.5475756.55932075v23.21552571l2.822441-1.4343871v-20.58024406l1.5121376.53526394v-3.13216082l-5.8821542-3.34778763zm26.2120043.95024385.006476 2.58239201-1.5031432-2.01475751-1.3183984.65271776v16.17307255l1.0929989.5619741-.0053967-1.7948854 1.7269238 2.7444217 1.4011468.2142117v-19.64857354zm-30.9772345 19.11914691 3.1226739-1.5352134v-16.57832362l-3.1226739-1.53503652zm41.2702398-16.4286761-2.4867702 3.2513835v-2.1559144l-2.74383.6401587v11.6341192l2.74383.5614434v-2.2291461l2.6497486 3.3309832 4.2908659.2101433-5.726731-7.9063755 5.0026822-7.7369166zm-51.5461557 15.2415788 6.78896902-3.3826346v-6.3688626l-3.22395079-.3366184v2.2367523l1.2924945.0030071v2.1596291l-2.23564671 1.0004801v-6.863796l4.167103.7406312v-2.6207768l-6.78896902-2.2095115z" fill="url(#a)" fill-rule="evenodd" mask="url(#b)"/></svg>

<?xml version="1.0" encoding="UTF-8"?>
<svg width="56px" height="35px" viewBox="0 0 56 35" version="1.1" xmlns="http://www.w3.org/2000/svg" xmlns:xlink="http://www.w3.org/1999/xlink">
    <title>编组</title>
    <defs>
        <path d="M23.7890943,0 L23.7890943,35 L29.7660494,35 L29.7660494,31.5266217 L27.6923018,31.5266217 L27.6923018,0 L23.7890943,0 Z M31.724309,4.7160185 L31.724309,29.4174058 L34.5346975,31.0631744 L34.5346975,3.07007303 L31.724309,4.7160185 Z M15.0411461,7.25454224 L16.5887217,7.81386299 L16.5887217,31.0293887 L19.4111627,29.5950016 L19.4111627,9.01475754 L20.9233003,9.55002148 L20.9233003,6.41786066 L15.0411461,3.07007303 L15.0411461,7.25454224 Z M41.2531504,8.20478609 L41.2596264,10.7871781 L39.7564832,8.77242059 L38.4380848,9.42513835 L38.4380848,25.5982109 L39.5310837,26.160185 L39.525687,24.3652996 L41.2526108,27.1097213 L42.6537576,27.323933 L42.6537576,7.67535946 L41.2531504,8.20478609 Z M10.2759159,27.323933 L13.3985898,25.7887196 L13.3985898,9.21039598 L10.2759159,7.67535946 L10.2759159,27.323933 Z M51.5461557,10.8952569 L49.0593855,14.1466404 L49.0593855,11.990726 L46.3155555,12.6308847 L46.3155555,24.2650039 L49.0593855,24.8264473 L49.0593855,22.5973012 L51.7091341,25.9282844 L56,26.1384277 L50.273269,18.2320522 L55.2759512,10.4951356 L51.5461557,10.8952569 Z M0,26.1368357 L6.78896902,22.7542011 L6.78896902,16.3853385 L3.56501823,16.0487201 L3.56501823,18.2854724 L4.85751273,18.2884795 L4.85751273,20.4481086 L2.62186602,21.4485887 L2.62186602,14.5847927 L6.78896902,15.3254239 L6.78896902,12.7046471 L0,10.4951356 L0,26.1368357 Z" id="path-1"></path>
        <linearGradient x1="0%" y1="49.9999176%" x2="100.000223%" y2="49.9999176%" id="linearGradient-3">
            <stop stop-color="#6DFFFF" offset="0%"></stop>
            <stop stop-color="#0080FF" offset="100%"></stop>
        </linearGradient>
    </defs>
    <g id="页面-1" stroke="none" stroke-width="1" fill="none" fill-rule="evenodd">
        <g id="建木自动化-登录页(gitee)" transform="translate(-932.000000, -285.000000)">
            <g id="编组-2" transform="translate(932.000000, 285.000000)">
                <mask id="mask-2" fill="white">
                    <use xlink:href="#path-1"></use>
                </mask>
                <g id="Clip-2"></g>
                <path d="M23.7890943,0 L23.7890943,35 L29.7660494,35 L29.7660494,31.5266217 L27.6923018,31.5266217 L27.6923018,0 L23.7890943,0 Z M31.724309,4.7160185 L31.724309,29.4174058 L34.5346975,31.0631744 L34.5346975,3.07007303 L31.724309,4.7160185 Z M15.0411461,7.25454224 L16.5887217,7.81386299 L16.5887217,31.0293887 L19.4111627,29.5950016 L19.4111627,9.01475754 L20.9233003,9.55002148 L20.9233003,6.41786066 L15.0411461,3.07007303 L15.0411461,7.25454224 Z M41.2531504,8.20478609 L41.2596264,10.7871781 L39.7564832,8.77242059 L38.4380848,9.42513835 L38.4380848,25.5982109 L39.5310837,26.160185 L39.525687,24.3652996 L41.2526108,27.1097213 L42.6537576,27.323933 L42.6537576,7.67535946 L41.2531504,8.20478609 Z M10.2759159,27.323933 L13.3985898,25.7887196 L13.3985898,9.21039598 L10.2759159,7.67535946 L10.2759159,27.323933 Z M51.5461557,10.8952569 L49.0593855,14.1466404 L49.0593855,11.990726 L46.3155555,12.6308847 L46.3155555,24.2650039 L49.0593855,24.8264473 L49.0593855,22.5973012 L51.7091341,25.9282844 L56,26.1384277 L50.273269,18.2320522 L55.2759512,10.4951356 L51.5461557,10.8952569 Z M0,26.1368357 L6.78896902,22.7542011 L6.78896902,16.3853385 L3.56501823,16.0487201 L3.56501823,18.2854724 L4.85751273,18.2884795 L4.85751273,20.4481086 L2.62186602,21.4485887 L2.62186602,14.5847927 L6.78896902,15.3254239 L6.78896902,12.7046471 L0,10.4951356 L0,26.1368357 Z" id="Fill-1" fill="url(#linearGradient-3)" mask="url(#mask-2)"></path>
            </g>
        </g>
    </g>
</svg>
